icons/svg/icons8/train.svg

<svg width="26" height="26" viewBox="0 0 26 26" fill="none" xmlns="http://www.w3.org/2000/svg">
<g clip-path="url(#clip0)">
<path d="M5.5 25L8.5 22.486" stroke="#333333" stroke-width="2" stroke-miterlimit="10" stroke-linecap="round" stroke-linejoin="round"/>
<path d="M20.5 25L17.5 22.486" stroke="#333333" stroke-width="2" stroke-miterlimit="10" stroke-linecap="round" stroke-linejoin="round"/>
<path d="M18 2H8C6.344 2 5 3.344 5 5V20C5 21.656 6.344 23 8 23H18C19.656 23 21 21.656 21 20V5C21 3.344 19.656 2 18 2ZM7 7C7 6.448 7.448 6 8 6H18C18.552 6 19 6.448 19 7V11C19 11.552 18.552 12 18 12H8C7.448 12 7 11.552 7 11V7ZM10 4C10 3.448 10.448 3 11 3H15C15.552 3 16 3.448 16 4C16 4.552 15.552 5 15 5H11C10.448 5 10 4.552 10 4ZM8.5 21.125C7.603 21.125 6.875 20.397 6.875 19.5C6.875 18.603 7.603 17.875 8.5 17.875C9.397 17.875 10.125 18.603 10.125 19.5C10.125 20.397 9.397 21.125 8.5 21.125ZM17.5 21.125C16.603 21.125 15.875 20.397 15.875 19.5C15.875 18.603 16.603 17.875 17.5 17.875C18.397 17.875 19.125 18.603 19.125 19.5C19.125 20.397 18.397 21.125 17.5 21.125Z" fill="#333333"/>
<path d="M15.5 2.813C16.2252 2.813 16.813 2.22515 16.813 1.5C16.813 0.774847 16.2252 0.186996 15.5 0.186996C14.7749 0.186996 14.187 0.774847 14.187 1.5C14.187 2.22515 14.7749 2.813 15.5 2.813Z" fill="#333333"/>
<path d="M10.5 2.813C11.2252 2.813 11.813 2.22515 11.813 1.5C11.813 0.774847 11.2252 0.186996 10.5 0.186996C9.77486 0.186996 9.18701 0.774847 9.18701 1.5C9.18701 2.22515 9.77486 2.813 10.5 2.813Z" fill="#333333"/>
</g>
<defs>
<clipPath id="clip0">
<rect width="26" height="26" fill="white"/>
</clipPath>
</defs>
</svg>

<?xml version="1.0" encoding="utf-8"?>
<!-- Generator: Adobe Illustrator 15.0.0, SVG Export Plug-In . SVG Version: 6.00 Build 0)  -->
<!DOCTYPE svg PUBLIC "-//W3C//DTD SVG 1.1//EN" "http://www.w3.org/Graphics/SVG/1.1/DTD/svg11.dtd">
<svg version="1.1" id="Layer_1" xmlns="http://www.w3.org/2000/svg" xmlns:xlink="http://www.w3.org/1999/xlink" x="0px" y="0px"
	 width="26px" height="26px" viewBox="0 0 26 26" enable-background="new 0 0 26 26" xml:space="preserve">
<rect x="902" y="1469" fill="#333333" width="26" height="2"/>
<rect x="902" y="1489" fill="#333333" width="26" height="2"/>
<rect x="906" y="1474" fill="#333333" width="18" height="2"/>
<rect x="902" y="1479" fill="#333333" width="26" height="2"/>
<rect x="906" y="1484" fill="#333333" width="18" height="2"/>
<rect x="902" y="1467" fill="none" width="26" height="26"/>
<rect fill="none" width="26" height="26"/>
<line fill="none" stroke="#333333" stroke-width="2" stroke-linecap="round" stroke-linejoin="round" stroke-miterlimit="10" x1="5.5" y1="25" x2="8.5" y2="22.486"/>
<line fill="none" stroke="#333333" stroke-width="2" stroke-linecap="round" stroke-linejoin="round" stroke-miterlimit="10" x1="20.5" y1="25" x2="17.5" y2="22.486"/>
<path fill="#333333" d="M18,2H8C6.344,2,5,3.344,5,5v15c0,1.656,1.344,3,3,3h10c1.656,0,3-1.344,3-3V5C21,3.344,19.656,2,18,2z M7,7
	c0-0.552,0.448-1,1-1h10c0.552,0,1,0.448,1,1v4c0,0.552-0.448,1-1,1H8c-0.552,0-1-0.448-1-1V7z M10,4c0-0.552,0.448-1,1-1h4
	c0.552,0,1,0.448,1,1l0,0c0,0.552-0.448,1-1,1h-4C10.448,5,10,4.552,10,4L10,4z M8.5,21.125c-0.897,0-1.625-0.728-1.625-1.625
	s0.728-1.625,1.625-1.625s1.625,0.728,1.625,1.625S9.397,21.125,8.5,21.125z M17.5,21.125c-0.897,0-1.625-0.728-1.625-1.625
	s0.728-1.625,1.625-1.625s1.625,0.728,1.625,1.625S18.397,21.125,17.5,21.125z"/>
<circle fill="#333333" cx="15.5" cy="1.5" r="1.313"/>
<circle fill="#333333" cx="10.5" cy="1.5" r="1.313"/>
</svg>
